X: 2
T:Crusader's Hymn
M:C
L: 1/4
Q: 1/2=100
K: Eb
 E2EE | (FD)E2 | G3/2G/2GG | (AF)G2 | B2ec | B(AG)| A2G2 |
 F3z | B2(cB) | (BGA2) | A2(BA) | (AF)GG | GGBA | G2F2 | E3z |]
